icon/pk/gold-medal.svg

<svg viewBox="0 0 48 48" fill="none" xmlns="http://www.w3.org/2000/svg" height="1em" width="1em">
  <path d="M44 4H31L27 14.3001C31.4614 15.2057 35.2038 18.0914 37.2699 22L44 4Z" fill="#2F88FF" stroke="black" stroke-width="4" stroke-linecap="round" stroke-linejoin="round"/>
  <path d="M17 4H4L10.7301 22C12.7962 18.0914 16.5386 15.2057 21 14.3001L17 4Z" fill="#2F88FF" stroke="black" stroke-width="4" stroke-linecap="round" stroke-linejoin="round"/>
  <path d="M39 29C39 37.2843 32.2843 44 24 44C15.7157 44 9 37.2843 9 29C9 26.4718 9.62546 24.0897 10.7301 22C12.7962 18.0914 16.5386 15.2057 21 14.3001C21.9693 14.1033 22.9726 14 24 14C25.0274 14 26.0307 14.1033 27 14.3001C31.4614 15.2057 35.2038 18.0914 37.2699 22C38.3745 24.0897 39 26.4718 39 29Z" fill="#2F88FF" stroke="black" stroke-width="4" stroke-linecap="round" stroke-linejoin="round"/>
  <path d="M24 35V22L21 23M24 35H28M24 35H20" stroke="white" stroke-width="4" stroke-linecap="round" stroke-linejoin="round"/>
</svg>

<svg width="48" height="48" fill="none" xmlns="http://www.w3.org/2000/svg"><path d="M44 4H31l-4 10.3A15.023 15.023 0 0 1 37.27 22L44 4ZM17 4H4l6.73 18A15.023 15.023 0 0 1 21 14.3L17 4Z" fill="#2F88FF" stroke="#000" stroke-width="4" stroke-linecap="round" stroke-linejoin="round"/><path d="M39 29c0 8.284-6.716 15-15 15-8.284 0-15-6.716-15-15 0-2.528.625-4.91 1.73-7A15.023 15.023 0 0 1 21 14.3c.97-.197 1.973-.3 3-.3s2.03.103 3 .3A15.023 15.023 0 0 1 37.27 22 14.935 14.935 0 0 1 39 29Z" fill="#2F88FF" stroke="#000" stroke-width="4" stroke-linecap="round" stroke-linejoin="round"/><path d="M24 35V22l-3 1m3 12h4m-4 0h-4" stroke="#fff" stroke-width="4" stroke-linecap="round" stroke-linejoin="round"/></svg>
